X: 252
T: Charles Street Bath
O: a Favorite Country Dance
B: John Pringle "Collection of Reels Strathspeys & Jigs", 1801 p.25#2
Z: 2011 John Chambers <jc:trillian.mit.edu>
R: reel
M: C|
L: 1/8
K: A
V: 1
   e | agag aece | fgag Tf2eg | aece fdBd | ceGB A2A :|
|: c | EBGB EcAc | EBcd ~c2B2 | aece fdBd | ceGB A2A :|
V: 2 clef=bass middle=d
   z | A2A2 A2A2 | A2c2 d2c2 | A2a2 e2e2 | a2e2 A2A :|
|: z | [e2G2][e2G2] [e2A2][e2A2] | [e2G2][e2G2] [e2A2][e2G2] | A2a2 e2E2 | a2e2 A2A :|

%%sep 2 1 500

